.github/logo.svg

<svg xmlns="http://www.w3.org/2000/svg" width="1996" height="520" viewBox="0 0 1996 520" version="1.1">
	<path d="M 240 50.604 C 232.519 51.797, 226.345 53.401, 222.179 55.234 C 216.795 57.603, 87.677 131.149, 78.219 137.234 C 70.305 142.326, 64.322 148.950, 59.751 157.679 C 52.089 172.312, 52.500 166.396, 52.500 262 C 52.500 357.629, 52.074 351.518, 59.774 366.321 C 64.306 375.034, 70.289 381.664, 78.219 386.764 C 88.937 393.656, 217.247 466.624, 222.517 468.824 C 236.447 474.638, 248.793 475.082, 263.950 470.315 C 266.954 469.370, 279.781 462.659, 292.456 455.401 C 319.586 439.866, 321.504 438.033, 321.494 427.664 C 321.490 422.930, 320.939 420.614, 319.121 417.683 C 316.054 412.737, 310.596 409.181, 304.871 408.396 C 299.304 407.633, 296.577 408.750, 278.159 419.333 C 270.821 423.550, 264.634 427, 264.409 427 C 264.184 427, 264 392.408, 264 350.130 L 264 273.259 311.250 246.183 C 337.238 231.291, 367.500 213.927, 378.500 207.597 L 398.500 196.089 399 212.794 C 399.531 230.533, 400.157 233.063, 405.155 237.654 C 408.250 240.497, 414.477 243.005, 418.372 242.978 C 426.921 242.918, 435.103 235.615, 437.047 226.310 C 438.852 217.671, 437.734 177.366, 435.486 170 C 431.405 156.629, 423.195 144.923, 413.081 138.055 C 404.996 132.565, 273.221 57.568, 267.373 55.129 C 259.022 51.646, 246.473 49.571, 240 50.604 M 785.468 78.232 C 785.203 78.930, 785.102 141.375, 785.243 217 L 785.500 354.500 810.500 354.500 L 835.500 354.500 835.761 310.670 C 835.926 282.914, 836.377 266.961, 836.991 267.170 C 837.524 267.352, 852.181 286.400, 869.561 309.500 C 886.941 332.600, 901.869 352.287, 902.735 353.250 C 904.168 354.842, 906.998 355, 934.155 355 C 950.570 355, 963.999 354.663, 963.999 354.250 C 963.998 353.837, 947.101 332.005, 926.450 305.733 C 902.780 275.620, 889.180 257.518, 889.653 256.753 C 890.065 256.086, 903.219 240.006, 918.884 221.020 C 934.549 202.034, 950.096 183.190, 953.433 179.145 C 956.770 175.100, 959.650 171.388, 959.833 170.895 C 960.025 170.381, 947.990 170, 931.571 170 L 902.976 170 883.305 194.750 C 872.486 208.363, 857.529 227.150, 850.067 236.500 L 836.500 253.500 836 165.500 L 835.500 77.500 810.725 77.232 C 791.446 77.024, 785.844 77.246, 785.468 78.232 M 1541.001 83.745 C 1534.375 86.083, 1526.838 94.208, 1524.551 101.477 C 1520.694 113.739, 1525.075 127.434, 1535.030 134.239 C 1547.733 142.923, 1566.615 139.775, 1574.824 127.605 C 1578.124 122.714, 1580.326 113.524, 1579.628 107.561 C 1577.426 88.762, 1558.993 77.397, 1541.001 83.745 M 234 92.296 C 230.425 94.215, 220.840 99.602, 212.700 104.269 L 197.900 112.752 203.200 115.767 C 206.115 117.424, 236.271 134.779, 270.213 154.332 L 331.925 189.882 355.527 176.306 C 368.508 168.839, 378.763 162.404, 378.315 162.007 C 377.867 161.610, 349.150 145.160, 314.500 125.451 C 256.129 92.248, 251.096 89.586, 246 89.212 C 241.202 88.859, 239.670 89.253, 234 92.296 M 136 148.120 C 123.625 155.236, 112.907 161.418, 112.181 161.857 C 111.286 162.400, 114.498 164.750, 122.181 169.177 C 203.917 216.263, 243.953 238.995, 245.103 238.970 C 245.871 238.953, 257.002 232.923, 269.838 225.569 L 293.176 212.199 287.338 208.792 C 254.289 189.507, 161.159 136.015, 160 135.652 C 159.175 135.393, 148.375 141.004, 136 148.120 M 1412.814 166.078 C 1384.732 170.197, 1366.129 183.964, 1359.376 205.623 C 1357.005 213.228, 1356.798 215.179, 1357.171 226.394 C 1357.566 238.252, 1357.737 239.082, 1361.246 246.136 C 1369.459 262.651, 1382.479 270.781, 1416.500 280.641 C 1439.277 287.243, 1445.543 290.443, 1448.492 296.983 C 1451.979 304.716, 1448.058 311.718, 1438.680 314.502 C 1432.197 316.428, 1418.180 316.423, 1408.815 314.492 C 1399.293 312.529, 1388.314 307.092, 1380.520 300.480 L 1374.285 295.191 1359.392 310.164 L 1344.500 325.137 1351.603 331.818 C 1364.222 343.688, 1380.684 351.836, 1401.500 356.514 C 1412.534 358.994, 1414.748 359.170, 1429 358.708 C 1447.379 358.112, 1456.082 356.138, 1468.287 349.794 C 1479.192 344.126, 1487.616 335.740, 1492.333 325.858 C 1496.965 316.155, 1498.395 308.306, 1497.728 296.235 C 1497.044 283.844, 1494.235 275.595, 1488.162 268.138 C 1476.835 254.232, 1468.850 250.268, 1425.223 236.894 C 1412.864 233.106, 1407.562 229.609, 1405.934 224.173 C 1404.957 220.913, 1405.045 219.708, 1406.478 216.688 C 1408.801 211.792, 1414.366 209.246, 1424.500 208.444 C 1439.660 207.244, 1454.676 212.339, 1465.001 222.187 L 1470.266 227.209 1485.133 212.367 C 1493.310 204.204, 1500 197.212, 1500 196.830 C 1500 194.956, 1486.608 182.896, 1479.857 178.689 C 1462.300 167.749, 1435.627 162.731, 1412.814 166.078 M 1863.500 165.641 C 1855.577 166.278, 1845.377 168.181, 1839 170.212 C 1810.101 179.413, 1786.873 202.265, 1777.721 230.500 C 1773.839 242.474, 1772.871 248.725, 1772.852 261.918 C 1772.813 289.599, 1781.847 311.845, 1800.716 330.529 C 1811.024 340.736, 1822.111 347.530, 1837 352.763 C 1849.154 357.035, 1858.476 358.405, 1875 358.348 C 1887.246 358.306, 1891.132 357.888, 1900 355.658 C 1916.982 351.387, 1933.775 342.099, 1944.474 331.058 L 1948.448 326.957 1933.800 312.308 L 1919.151 297.660 1915.668 300.719 C 1903.114 311.741, 1890.902 316.124, 1872.730 316.128 C 1851.744 316.133, 1835.701 307.121, 1827.494 290.714 C 1821.504 278.742, 1814.045 280, 1891.025 280 L 1958.050 280 1959.180 277.250 C 1960.839 273.213, 1961.432 249.337, 1960.073 241.315 C 1958.712 233.278, 1954.691 220.289, 1951.793 214.562 C 1938.840 188.971, 1915.488 171.470, 1888.500 167.129 C 1881.105 165.939, 1868.851 165.210, 1863.500 165.641 M 652.500 166.960 C 642.338 169.143, 629.586 175.256, 620.856 182.131 C 618.852 183.709, 616.939 185, 616.606 185 C 616.273 185, 616 181.625, 616 177.500 L 616 170 591 170 L 566 170 566 301 L 566 432 591 432 L 616 432 616 386 C 616 360.700, 616.262 340, 616.582 340 C 616.902 340, 619.039 341.522, 621.332 343.382 C 630.613 350.912, 646.030 356.710, 660 357.925 C 688.672 360.417, 711.485 352.498, 730.405 333.484 C 748.538 315.261, 758.001 290.918, 757.998 262.500 C 757.996 239.078, 752.825 221.473, 740.668 203.500 C 729.519 187.017, 712.338 174.598, 692.821 168.914 C 684.717 166.554, 659.973 165.355, 652.500 166.960 M 1030.704 167.480 C 1015.181 170.702, 1000.767 178.483, 988.986 190 C 974.739 203.927, 966.697 219.265, 963.068 239.434 C 961.708 246.989, 961.702 266.550, 963.058 275 C 968.059 306.189, 988.229 332.294, 1016.065 343.605 C 1024.531 347.045, 1040.199 350, 1049.970 350 C 1065.977 350, 1083.338 344.501, 1095.959 335.434 C 1098.588 333.545, 1101.091 332, 1101.522 332 C 1103.115 332, 1101.039 356.822, 1098.987 362.304 C 1094.284 374.875, 1085.824 383.073, 1072.574 387.900 C 1066.111 390.254, 1064.204 390.472, 1050.500 390.419 C 1036.816 390.366, 1034.799 390.120, 1027.510 387.607 C 1017.428 384.132, 1009.486 379.321, 1001.506 371.857 C 998.063 368.636, 994.838 366, 994.340 366 C 992.875 366, 964 395.696, 964 397.203 C 964 399.925, 977.252 413.041, 985.647 418.627 C 1004.798 431.369, 1024.819 437.003, 1050.934 436.997 C 1083.185 436.990, 1109.998 426.564, 1128.612 406.793 C 1137.856 396.974, 1145.319 383.728, 1148.495 371.500 C 1151.668 359.285, 1152.055 345.840, 1151.777 257.500 L 1151.500 169.500 1127 169.500 L 1102.500 169.500 1102.206 176.750 C 1102.045 180.738, 1101.688 184, 1101.413 184 C 1101.139 184, 1098.571 182.250, 1095.707 180.110 C 1089.122 175.191, 1082.397 171.833, 1073.500 169.020 C 1064.445 166.158, 1041.117 165.319, 1030.704 167.480 M 1526 262.517 L 1526 355.034 1551.250 354.767 L 1576.500 354.500 1576.755 262.250 L 1577.010 170 1551.505 170 L 1526 170 1526 262.517 M 1609 191.500 L 1609 213 1648.607 213 C 1682.463 213, 1688.135 213.207, 1687.668 214.424 C 1687.367 215.207, 1674.171 232.645, 1658.344 253.174 C 1642.516 273.703, 1623.364 298.571, 1615.783 308.436 L 1602 326.372 1602 340.686 L 1602 355 1680.500 355 L 1759 355 1759 333.011 L 1759 311.022 1716.963 310.761 L 1674.925 310.500 1688.762 292.500 C 1696.372 282.600, 1715.739 257.449, 1731.799 236.610 L 1761 198.720 1761 184.360 L 1761 170 1685 170 L 1609 170 1609 191.500 M 91 269.279 C 91 350.040, 90.746 346.613, 97.172 352.602 C 99.621 354.885, 206.569 416.800, 223.750 425.881 L 226 427.070 226 350.170 L 226 273.270 161.750 236.432 C 126.412 216.172, 96.037 198.741, 94.250 197.699 L 91 195.802 91 269.279 M 1857.634 208.586 C 1844.529 211.758, 1833.177 220.763, 1827.096 232.810 C 1825.393 236.183, 1824 239.631, 1824 240.471 C 1824 241.820, 1829.234 242, 1868.419 242 L 1912.839 242 1911.815 238.250 C 1905.383 214.699, 1883.003 202.446, 1857.634 208.586 M 1049 212.427 C 1039.676 214.500, 1036.166 216.011, 1030.773 220.273 C 1023.812 225.776, 1021.632 228.401, 1018.125 235.500 C 1006.618 258.792, 1015.320 288.009, 1036.988 298.836 C 1045.363 303.021, 1052.701 304.361, 1063.680 303.712 C 1071.145 303.270, 1074.058 302.597, 1079.268 300.111 C 1092.520 293.786, 1102.378 279.779, 1104.004 264.962 C 1107.095 236.802, 1092.519 216.212, 1066.500 211.986 C 1059.112 210.786, 1056.035 210.864, 1049 212.427 M 650.108 213.082 C 643.640 214.352, 633.855 219.236, 628.957 223.638 C 623.351 228.678, 617.536 237.733, 615.346 244.832 C 613.132 252.014, 612.887 270.324, 614.909 277.500 C 621.098 299.459, 637.489 312, 660 312 C 670.401 312, 678.058 309.780, 686.102 304.432 C 703.150 293.099, 710.807 270.204, 705.062 247.741 C 702.434 237.467, 699.769 232.607, 693.125 225.975 C 681.864 214.733, 665.964 209.968, 650.108 213.082 M 1190 257 L 1190 280 1256.500 280 L 1323 280 1323 257 L 1323 234 1256.500 234 L 1190 234 1190 257 M 356.365 263.493 C 330.729 269.069, 310.423 289.014, 304.435 314.500 C 303.213 319.703, 302.920 324.324, 303.295 332.500 C 304.147 351.068, 309.697 363.580, 323.089 377.124 C 329.327 383.433, 332.352 385.600, 340.089 389.303 C 351.958 394.984, 358.081 396.446, 370 396.446 C 380.323 396.446, 387.243 395.096, 396.407 391.293 L 402.313 388.843 414.407 400.882 C 421.470 407.915, 428.046 413.562, 430.218 414.461 C 444.724 420.466, 460.030 407.034, 455.970 391.863 C 455.015 388.293, 452.550 385.221, 442.401 374.953 C 435.581 368.052, 430 361.921, 430 361.330 C 430 360.738, 430.884 358.256, 431.964 355.815 C 437.159 344.069, 438.620 326.798, 435.541 313.521 C 433.571 305.026, 428.119 294.091, 422.317 287 C 406.466 267.626, 380.280 258.292, 356.365 263.493 M 359.606 302.568 C 340.743 309.481, 335.302 335.235, 349.668 349.602 C 354.890 354.823, 360.523 357.252, 368.639 357.782 C 374.723 358.180, 376.569 357.885, 381.139 355.784 C 388.385 352.453, 392.034 349.173, 395.546 342.833 C 398.135 338.159, 398.498 336.511, 398.481 329.500 C 398.464 322.796, 398.029 320.675, 395.795 316.410 C 392.746 310.589, 387.461 305.568, 381.565 302.890 C 376.615 300.642, 365.315 300.476, 359.606 302.568" stroke="none" fill="#ff7251" fill-rule="evenodd"/>
</svg>

<svg xmlns="http://www.w3.org/2000/svg" viewBox="0 0 1996 520">
  <path fill="#ff7251" fill-rule="evenodd" d="M240 50.6a76.9 76.9 0 0 0-17.8 4.6c-5.4 2.4-134.5 76-144 82a52.2 52.2 0 0 0-18.4 20.5c-7.7 14.6-7.3 8.7-7.3 104.3s-.4 89.5 7.3 104.3a52 52 0 0 0 18.4 20.5c10.7 6.9 139 79.8 144.3 82a56 56 0 0 0 41.4 1.5c3-1 15.9-7.6 28.6-14.9 27-15.5 29-17.4 29-27.7 0-4.8-.6-7-2.4-10-3-5-8.5-8.5-14.2-9.3-5.6-.8-8.3.4-26.7 11l-13.8 7.6c-.2 0-.4-34.6-.4-76.9v-76.8l47.3-27.1 67.2-38.6 20-11.5.5 16.7c.5 17.7 1.2 20.3 6.2 24.9 3 2.8 9.3 5.3 13.2 5.3 8.5 0 16.7-7.4 18.6-16.7 1.9-8.6.7-49-1.5-56.3a60 60 0 0 0-22.4-32 6771 6771 0 0 0-145.7-82.9 62.3 62.3 0 0 0-27.4-4.5m545.5 27.6c-.3.7-.4 63.2-.3 138.8l.3 137.5h50l.3-43.8c.1-27.8.6-43.7 1.2-43.5.5.2 15.2 19.2 32.6 42.3l33.1 43.8c1.5 1.5 4.3 1.7 31.5 1.7 16.4 0 29.8-.3 29.8-.7s-16.9-22.3-37.5-48.6c-23.7-30-37.3-48.2-36.8-49 .4-.6 13.5-16.7 29.2-35.7l34.5-41.9a71 71 0 0 0 6.4-8.2c.2-.5-11.8-.9-28.2-.9H903l-19.7 24.8-33.2 41.7-13.6 17-.5-88-.5-88-24.8-.3c-19.3-.2-24.9 0-25.2 1m755.5 5.5a31 31 0 0 0-16.4 17.8c-4 12.2.5 26 10.4 32.7 12.7 8.7 31.6 5.6 39.8-6.6a35 35 0 0 0 4.8-20 28.7 28.7 0 0 0-38.6-23.9M234 92.3c-3.6 2-13.2 7.3-21.3 12l-14.8 8.5 5.3 3 67 38.5L332 190l23.6-13.6c13-7.5 23.3-13.9 22.8-14.3l-63.8-36.5c-58.4-33.3-63.4-36-68.5-36.3-4.8-.3-6.3 0-12 3.1m-98 55.8L112.2 162c-1 .5 2.3 2.8 10 7.3L245 239c.8 0 11.9-6 24.7-13.4l23.4-13.4-5.9-3.4L160 135.7c-.8-.3-11.6 5.3-24 12.4m1276.8 18c-28 4.1-46.7 17.9-53.4 39.5a46.7 46.7 0 0 0-2.2 20.8c.4 11.9.5 12.7 4 19.7 8.3 16.6 21.3 24.7 55.3 34.5 22.8 6.6 29 9.8 32 16.4 3.5 7.7-.4 14.7-9.8 17.5a68.3 68.3 0 0 1-58.2-14l-6.2-5.3-15 15-14.8 15 7.1 6.6a104 104 0 0 0 49.9 24.7 78 78 0 0 0 27.5 2.2 78 78 0 0 0 39.3-9 53.5 53.5 0 0 0 29.4-53.5 45 45 0 0 0-9.5-28c-11.4-14-19.4-18-63-31.3-12.3-3.8-17.6-7.3-19.3-12.7-1-3.3-.9-4.5.6-7.5 2.3-5 7.9-7.5 18-8.3a53 53 0 0 1 40.5 13.8l5.3 5 14.8-14.8a242 242 0 0 0 14.9-15.6c0-1.8-13.4-13.9-20.1-18.1a106 106 0 0 0-67-12.6m450.6-.5a95 95 0 0 0-90.6 96.3c0 27.7 9 50 27.8 68.6a92.2 92.2 0 0 0 36.3 22.3c12.2 4.2 21.5 5.6 38 5.5a97.6 97.6 0 0 0 69.5-27.3l4-4-14.7-14.7-14.6-14.6-3.5 3a58.8 58.8 0 0 1-43 15.4c-21 0-37-9-45.2-25.4-6-12-13.5-10.7 63.5-10.7h67l1.2-2.7c1.6-4 2.2-28 .9-36a86.8 86.8 0 0 0-71.6-74.2c-7.4-1.2-19.6-1.9-25-1.5m-1211 1.4a85.5 85.5 0 0 0-31.6 15.1c-2 1.6-4 2.9-4.3 2.9s-.6-3.4-.6-7.5V170h-50v262h50v-46l.6-46a27 27 0 0 1 4.7 3.4 76.5 76.5 0 0 0 38.7 14.5 83.1 83.1 0 0 0 70.4-24.4 97.7 97.7 0 0 0 27.6-71 98 98 0 0 0-17.3-59 87.6 87.6 0 0 0-47.9-34.6 139 139 0 0 0-40.3-2m378.2.6c-15.5 3.2-30 11-41.7 22.5a86.7 86.7 0 0 0-26 49.4 163 163 0 0 0 0 35.6 88.5 88.5 0 0 0 53 68.6 112 112 0 0 0 34 6.4 82 82 0 0 0 46-14.6c2.6-1.9 5-3.4 5.5-3.4 1.6 0-.5 24.8-2.5 30.3a41.3 41.3 0 0 1-26.4 25.6c-6.5 2.4-8.4 2.6-22.1 2.5a54 54 0 0 1-23-2.8c-10-3.5-18-8.3-26-15.7a40 40 0 0 0-7.2-5.9 301 301 0 0 0-30.3 31.2c0 2.7 13.3 15.8 21.6 21.4A110.8 110.8 0 0 0 1051 437c32.3 0 59.1-10.4 77.7-30.2 9.3-9.8 16.7-23 19.9-35.3 3.2-12.2 3.6-25.7 3.3-114l-.3-88h-49l-.3 7.2c-.2 4-.5 7.3-.8 7.3s-2.8-1.8-5.7-3.9c-6.6-5-13.3-8.3-22.2-11-9-3-32.4-3.8-42.8-1.6m495.3 95V355l25.3-.2 25.2-.3.3-92.3.2-92.2h-51v92.5m83-71V213h39.6c33.9 0 39.5.2 39 1.4-.2.8-13.4 18.2-29.3 38.8l-42.5 55.2-13.8 18V355h157v-44l-42-.2-42-.3 13.8-18 43-55.9 29.2-37.9V170h-152v21.5M91 269.3c0 80.7-.3 77.3 6.2 83.3a4761 4761 0 0 0 126.5 73.3l2.3 1.2V273.3l-64.3-36.9-67.4-38.7-3.3-1.9v73.5m1766.6-60.7a46.9 46.9 0 0 0-33.6 31.9c0 1.3 5.2 1.5 44.4 1.5h44.4l-1-3.8c-6.4-23.5-28.8-35.8-54.2-29.6m-808.6 3.8a37 37 0 0 0-18.2 7.9c-7 5.5-9.2 8.1-12.7 15.2-11.5 23.3-2.8 52.5 18.9 63.3a47.9 47.9 0 0 0 26.7 5c7.4-.5 10.4-1.2 15.6-3.7A45.5 45.5 0 0 0 1104 265c3-28.2-11.5-48.8-37.5-53a37.4 37.4 0 0 0-17.5.4m-398.9.7a53.8 53.8 0 0 0-21.1 10.5 53.8 53.8 0 0 0-13.7 21.2 84.8 84.8 0 0 0-.4 32.7A44.4 44.4 0 0 0 660 312c10.4 0 18-2.2 26.1-7.6 17-11.3 24.7-34.2 19-56.7a39.9 39.9 0 0 0-12-21.7 47.4 47.4 0 0 0-43-13m539.9 44v23h133v-46h-133v23m-833.6 6.5a68.4 68.4 0 0 0-52 51 60.3 60.3 0 0 0-1.1 18c.8 18.6 6.4 31 19.8 44.6 6.2 6.3 9.3 8.5 17 12.2a58 58 0 0 0 29.9 7.1c10.3 0 17.2-1.3 26.4-5.1l6-2.5 12 12c7 7.1 13.6 12.8 15.8 13.7 14.5 6 29.8-7.5 25.8-22.6-1-3.6-3.5-6.7-13.6-17-6.8-6.8-12.4-13-12.4-13.6s.9-3 2-5.5a73 73 0 0 0 3.5-42.3 68 68 0 0 0-79.2-50m3.3 39c-18.9 7-24.3 32.7-10 47.1a27 27 0 0 0 19 8.2c6.1.4 8 0 12.5-2a27.3 27.3 0 0 0 14.4-13c2.6-4.6 3-6.3 3-13.3 0-6.7-.5-8.8-2.7-13a31 31 0 0 0-14.2-13.6c-5-2.3-16.3-2.4-22-.3"/>
</svg>
